src/chrome/browser/resources/local_ntp/icons/wallpapers.svg

<svg xmlns="http://www.w3.org/2000/svg" xmlns:xlink="http://www.w3.org/1999/xlink" width="24" height="24" viewBox="0 0 24 24">
  <defs>
    <circle id="group-a" cx="11.936" cy="11.932" r="11.932"/>
    <path id="group-c" d="M23.8277966,12.9152542 L16.779661,5.86711864 C16.3322034,5.29898305 15.6379661,4.93559322 14.859661,4.93559322 C13.7966102,4.93559322 12.8908475,5.61491525 12.5559322,6.5640678 L12.1355932,6.5640678 L11.3830508,5.37220339 C11.0264407,4.80813559 10.2020339,4.80813559 9.84542373,5.37220339 L3.53355932,15.3613559 C3.34779661,15.6555932 3.30847458,16.1613559 3.69355932,16.5138983 L11.0698305,23.8332203 C11.3559322,23.8535593 11.6433898,23.8644068 11.9349153,23.8644068 C18.1952542,23.8644068 23.3288136,19.0454237 23.8277966,12.9152542 Z"/>
    <linearGradient id="group-d" x1="18.237%" x2="80.781%" y1="16.317%" y2="82.979%">
      <stop offset="0%" stop-color="#1C3AA9" stop-opacity=".2"/>
      <stop offset="100%" stop-color="#1C3AA9" stop-opacity=".02"/>
    </linearGradient>
    <path id="group-f" d="M23.8277966,12.9152542 L16.779661,5.86711864 C16.3322034,5.29898305 15.6379661,4.93559322 14.859661,4.93559322 C13.7966102,4.93559322 12.8908475,5.61491525 12.5559322,6.5640678 L12.1355932,6.5640678 L11.3830508,5.37220339 C11.0264407,4.80813559 10.2020339,4.80813559 9.84542373,5.37220339 L3.53355932,15.3613559 C3.34779661,15.6555932 3.30847458,16.1613559 3.69355932,16.5138983 L11.0698305,23.8332203 C11.3559322,23.8535593 11.6433898,23.8644068 11.9349153,23.8644068 C18.1952542,23.8644068 23.3288136,19.0454237 23.8277966,12.9152542 Z"/>
    <path id="group-h" d="M23.8277966,12.9152542 L16.779661,5.86711864 C16.3322034,5.29898305 15.6379661,4.93559322 14.859661,4.93559322 C13.7966102,4.93559322 12.8908475,5.61491525 12.5559322,6.5640678 L12.1355932,6.5640678 L11.3830508,5.37220339 C11.0264407,4.80813559 10.2020339,4.80813559 9.84542373,5.37220339 L3.53355932,15.3613559 C3.34779661,15.6555932 3.30847458,16.1613559 3.69355932,16.5138983 L11.0698305,23.8332203 C11.3559322,23.8535593 11.6433898,23.8644068 11.9349153,23.8644068 C18.1952542,23.8644068 23.3288136,19.0454237 23.8277966,12.9152542 Z"/>
    <path id="group-j" d="M23.8277966,12.9152542 L16.779661,5.86711864 C16.3322034,5.29898305 15.6379661,4.93559322 14.859661,4.93559322 C13.7966102,4.93559322 12.8908475,5.61491525 12.5559322,6.5640678 L12.1355932,6.5640678 L11.3830508,5.37220339 C11.0264407,4.80813559 10.2020339,4.80813559 9.84542373,5.37220339 L3.53355932,15.3613559 C3.34779661,15.6555932 3.30847458,16.1613559 3.69355932,16.5138983 L11.0698305,23.8332203 C11.3559322,23.8535593 11.6433898,23.8644068 11.9349153,23.8644068 C18.1952542,23.8644068 23.3288136,19.0454237 23.8277966,12.9152542 Z"/>
    <path id="group-l" d="M23.8277966,12.9152542 L16.779661,5.86711864 C16.3322034,5.29898305 15.6379661,4.93559322 14.859661,4.93559322 C13.7966102,4.93559322 12.8908475,5.61491525 12.5559322,6.5640678 L12.1355932,6.5640678 L11.3830508,5.37220339 C11.0264407,4.80813559 10.2020339,4.80813559 9.84542373,5.37220339 L3.53355932,15.3613559 C3.34779661,15.6555932 3.30847458,16.1613559 3.69355932,16.5138983 L11.0698305,23.8332203 C11.3559322,23.8535593 11.6433898,23.8644068 11.9349153,23.8644068 C18.1952542,23.8644068 23.3288136,19.0454237 23.8277966,12.9152542 Z"/>
    <path id="group-n" d="M23.8277966,12.9152542 L16.779661,5.86711864 C16.3322034,5.29898305 15.6379661,4.93559322 14.859661,4.93559322 C13.7966102,4.93559322 12.8908475,5.61491525 12.5559322,6.5640678 L12.1355932,6.5640678 L11.3830508,5.37220339 C11.0264407,4.80813559 10.2020339,4.80813559 9.84542373,5.37220339 L3.53355932,15.3613559 C3.34779661,15.6555932 3.30847458,16.1613559 3.69355932,16.5138983 L11.0698305,23.8332203 C11.3559322,23.8535593 11.6433898,23.8644068 11.9349153,23.8644068 C18.1952542,23.8644068 23.3288136,19.0454237 23.8277966,12.9152542 Z"/>
    <path id="group-p" d="M23.8277966,12.9152542 L16.779661,5.86711864 C16.3322034,5.29898305 15.6379661,4.93559322 14.859661,4.93559322 C13.7966102,4.93559322 12.8908475,5.61491525 12.5559322,6.5640678 L12.1355932,6.5640678 L11.3830508,5.37220339 C11.0264407,4.80813559 10.2020339,4.80813559 9.84542373,5.37220339 L3.53355932,15.3613559 C3.34779661,15.6555932 3.30847458,16.1613559 3.69355932,16.5138983 L11.0698305,23.8332203 C11.3559322,23.8535593 11.6433898,23.8644068 11.9349153,23.8644068 C18.1952542,23.8644068 23.3288136,19.0454237 23.8277966,12.9152542 Z"/>
    <linearGradient id="group-r" x1="14.132%" x2="85.172%" y1="14.136%" y2="85.175%">
      <stop offset="0%" stop-color="#FFF" stop-opacity=".1"/>
      <stop offset="100%" stop-color="#FFF" stop-opacity="0"/>
    </linearGradient>
  </defs>
  <g fill="none" fill-rule="evenodd">
    <mask id="group-b" fill="#fff">
      <use xlink:href="#group-a"/>
    </mask>
    <circle cx="11.936" cy="11.932" r="11.932" fill="#4285F4" fill-rule="nonzero" mask="url(#group-b)"/>
    <mask id="group-e" fill="#fff">
      <use xlink:href="#group-c"/>
    </mask>
    <path fill="url(#group-d)" fill-rule="nonzero" d="M23.8277966,12.9152542 L16.779661,5.86711864 C16.3322034,5.29898305 15.6379661,4.93559322 14.859661,4.93559322 C13.7966102,4.93559322 12.8908475,5.61491525 12.5559322,6.5640678 L12.1355932,6.5640678 L11.3830508,5.37220339 C11.0264407,4.80813559 10.2020339,4.80813559 9.84542373,5.37220339 L3.53355932,15.3613559 C3.34779661,15.6555932 3.30169492,16.1694915 3.71525424,16.5315254 L11.2881356,24.1044068 C11.3559322,23.8549153 11.6447458,23.8657627 11.9362712,23.8657627 C18.1952542,23.8644068 23.3288136,19.0454237 23.8277966,12.9152542 Z" mask="url(#group-e)"/>
    <mask id="group-g" fill="#fff">
      <use xlink:href="#group-f"/>
    </mask>
    <path fill="#EEE" fill-rule="nonzero" d="M20.3376271,15.3613559 L18.3498305,12.2155932 C17.9932203,11.6515254 17.1688136,11.6515254 16.8122034,12.2155932 L16.260339,13.0888136 L11.3844068,5.37220339 C11.0277966,4.80813559 10.2033898,4.80813559 9.84677966,5.37220339 L3.53491525,15.3613559 C3.15525424,15.9633898 3.58915254,16.7457627 4.30372881,16.7457627 L19.5688136,16.7457627 C20.2833898,16.7457627 20.7172881,15.9633898 20.3376271,15.3613559 Z" mask="url(#group-g)"/>
    <mask id="group-i" fill="#fff">
      <use xlink:href="#group-h"/>
    </mask>
    <path fill="#FFF" fill-opacity=".4" fill-rule="nonzero" d="M3.53491525,15.4969492 L9.84677966,5.50779661 C10.2033898,4.94372881 11.0277966,4.94372881 11.3844068,5.50779661 L16.260339,13.2244068 L16.8122034,12.3511864 C17.1688136,11.7871186 17.9932203,11.7871186 18.3498305,12.3511864 L20.3376271,15.4969492 C20.4216949,15.6298305 20.4637288,15.7708475 20.4745763,15.9105085 C20.4894915,15.7274576 20.4488136,15.5376271 20.3376271,15.3613559 L18.3498305,12.2155932 C17.9932203,11.6515254 17.1688136,11.6515254 16.8122034,12.2155932 L16.260339,13.0888136 L11.3844068,5.37220339 C11.0277966,4.80813559 10.2033898,4.80813559 9.84677966,5.37220339 L3.53491525,15.3613559 C3.42372881,15.5362712 3.38440678,15.7274576 3.3979661,15.9105085 C3.40881356,15.7708475 3.45084746,15.6298305 3.53491525,15.4969492 Z" mask="url(#group-i)"/>
    <mask id="group-k" fill="#fff">
      <use xlink:href="#group-j"/>
    </mask>
    <path fill="#A1C2FA" fill-rule="nonzero" d="M11.9932203,6.5640678 L12.5559322,6.5640678 C12.8908475,5.61491525 13.7952542,4.93559322 14.859661,4.93559322 C16.2088136,4.93559322 17.3030508,6.02983051 17.3030508,7.37898305 C17.3030508,8.72813559 16.2088136,9.71118644 14.859661,9.71118644 L11.9932203,9.71118644 C11.0942373,9.71118644 10.3647458,9.11728814 10.3647458,8.21694915 C10.3647458,7.31661017 11.0942373,6.5640678 11.9932203,6.5640678 Z" mask="url(#group-k)"/>
    <mask id="group-m" fill="#fff">
      <use xlink:href="#group-l"/>
    </mask>
    <path fill="#212121" fill-opacity=".1" fill-rule="nonzero" d="M19.5688136,16.6101695 L4.30372881,16.6101695 C3.7979661,16.6101695 3.43322034,16.2169492 3.3979661,15.7735593 C3.36135593,16.2684746 3.74644068,16.7457627 4.30372881,16.7457627 L19.5688136,16.7457627 C20.1261017,16.7457627 20.5111864,16.2698305 20.4745763,15.7735593 C20.439322,16.2169492 20.0745763,16.6101695 19.5688136,16.6101695 Z" mask="url(#group-m)"/>
    <mask id="group-o" fill="#fff">
      <use xlink:href="#group-n"/>
    </mask>
    <path fill="#FFF" fill-opacity=".2" fill-rule="nonzero" d="M11.9932203,6.69966102 L12.5559322,6.69966102 C12.8908475,5.75050847 13.7952542,5.07118644 14.859661,5.07118644 C16.1857627,5.07118644 17.2637288,6.12881356 17.2989831,7.44677966 C17.2989831,7.42372881 17.3030508,7.4020339 17.3030508,7.37898305 C17.3030508,6.02983051 16.2088136,4.93559322 14.859661,4.93559322 C13.7966102,4.93559322 12.8908475,5.61491525 12.5559322,6.5640678 L11.9932203,6.5640678 C11.0942373,6.5640678 10.3647458,7.31661017 10.3647458,8.21694915 C10.3647458,8.24 10.3674576,8.26169492 10.3688136,8.28474576 C10.4040678,7.41423729 11.1172881,6.69966102 11.9932203,6.69966102 Z" mask="url(#group-o)"/>
    <mask id="group-q" fill="#fff">
      <use xlink:href="#group-p"/>
    </mask>
    <path fill="#1A237E" fill-opacity=".2" fill-rule="nonzero" d="M14.859661,9.70983051 L11.9932203,9.70983051 C11.1172881,9.70983051 10.4040678,9.14440678 10.3674576,8.28338983 C10.3661017,8.30644068 10.3633898,8.32813559 10.3633898,8.35118644 C10.3633898,9.25016949 11.0928814,9.84542373 11.9918644,9.84542373 L14.8583051,9.84542373 C16.2074576,9.84542373 17.3016949,8.86372881 17.3016949,7.51322034 C17.3016949,7.49016949 17.2989831,7.46847458 17.2976271,7.44542373 C17.2637288,8.75932203 16.1871186,9.70983051 14.859661,9.70983051 Z" mask="url(#group-q)"/>
    <path fill="#1A237E" fill-rule="nonzero" d="M11.9362712,23.7288136 C5.36813559,23.7288136 0.0406779661,18.4230508 0.00406779661,11.8644068 C0.00406779661,11.8874576 0.00271186441,11.9091525 0.00271186441,11.9322034 C0.00271186441,18.5220339 5.34508475,23.8644068 11.9349153,23.8644068 C18.5247458,23.8644068 23.8671186,18.5220339 23.8671186,11.9322034 C23.8671186,11.9091525 23.8657627,11.8874576 23.8657627,11.8644068 C23.8305085,18.4230508 18.5030508,23.7288136 11.9362712,23.7288136 Z" mask="url(#group-q)" opacity=".2"/>
    <path fill="#FFF" fill-rule="nonzero" d="M11.9362712,0.13559322 C18.5030508,0.13559322 23.8305085,5.44135593 23.8671186,12 C23.8671186,11.9769492 23.8684746,11.9552542 23.8684746,11.9322034 C23.8684746,5.34237288 18.5261017,0 11.9362712,0 C5.34644068,0 0.00406779661,5.34237288 0.00406779661,11.9322034 C0.00406779661,11.9552542 0.00542372881,11.9769492 0.00542372881,12 C0.0406779661,5.44135593 5.36813559,0.13559322 11.9362712,0.13559322 Z" mask="url(#group-q)" opacity=".2"/>
    <circle cx="11.936" cy="11.932" r="11.932" fill="url(#group-r)" fill-rule="nonzero" mask="url(#group-q)"/>
    <rect width="26.034" height="26.034" x="-1.081" y="-1.085" mask="url(#group-q)"/>
  </g>
</svg>

<svg xmlns="http://www.w3.org/2000/svg" xmlns:xlink="http://www.w3.org/1999/xlink" width="24" height="24"><defs><circle id="a" cx="11.936" cy="11.932" r="11.932"/><path id="c" d="M23.828 12.915L16.78 5.867a2.443 2.443 0 0 0-4.224.697h-.42l-.753-1.192a.91.91 0 0 0-1.538 0l-6.311 9.99a.91.91 0 0 0 .16 1.152l7.376 7.32c.286.02.573.03.865.03 6.26 0 11.394-4.819 11.893-10.949z"/><linearGradient id="d" x1="18.237%" x2="80.781%" y1="16.317%" y2="82.979%"><stop offset="0%" stop-color="#1C3AA9" stop-opacity=".2"/><stop offset="100%" stop-color="#1C3AA9" stop-opacity=".02"/></linearGradient><path id="f" d="M23.828 12.915L16.78 5.867a2.443 2.443 0 0 0-4.224.697h-.42l-.753-1.192a.91.91 0 0 0-1.538 0l-6.311 9.99a.91.91 0 0 0 .16 1.152l7.376 7.32c.286.02.573.03.865.03 6.26 0 11.394-4.819 11.893-10.949z"/><path id="h" d="M23.828 12.915L16.78 5.867a2.443 2.443 0 0 0-4.224.697h-.42l-.753-1.192a.91.91 0 0 0-1.538 0l-6.311 9.99a.91.91 0 0 0 .16 1.152l7.376 7.32c.286.02.573.03.865.03 6.26 0 11.394-4.819 11.893-10.949z"/><path id="j" d="M23.828 12.915L16.78 5.867a2.443 2.443 0 0 0-4.224.697h-.42l-.753-1.192a.91.91 0 0 0-1.538 0l-6.311 9.99a.91.91 0 0 0 .16 1.152l7.376 7.32c.286.02.573.03.865.03 6.26 0 11.394-4.819 11.893-10.949z"/><path id="l" d="M23.828 12.915L16.78 5.867a2.443 2.443 0 0 0-4.224.697h-.42l-.753-1.192a.91.91 0 0 0-1.538 0l-6.311 9.99a.91.91 0 0 0 .16 1.152l7.376 7.32c.286.02.573.03.865.03 6.26 0 11.394-4.819 11.893-10.949z"/><path id="n" d="M23.828 12.915L16.78 5.867a2.443 2.443 0 0 0-4.224.697h-.42l-.753-1.192a.91.91 0 0 0-1.538 0l-6.311 9.99a.91.91 0 0 0 .16 1.152l7.376 7.32c.286.02.573.03.865.03 6.26 0 11.394-4.819 11.893-10.949z"/><path id="p" d="M23.828 12.915L16.78 5.867a2.443 2.443 0 0 0-4.224.697h-.42l-.753-1.192a.91.91 0 0 0-1.538 0l-6.311 9.99a.91.91 0 0 0 .16 1.152l7.376 7.32c.286.02.573.03.865.03 6.26 0 11.394-4.819 11.893-10.949z"/><linearGradient id="r" x1="14.132%" x2="85.172%" y1="14.136%" y2="85.175%"><stop offset="0%" stop-color="#FFF" stop-opacity=".1"/><stop offset="100%" stop-color="#FFF" stop-opacity="0"/></linearGradient></defs><g fill="none" fill-rule="evenodd"><mask id="b" fill="#fff"><use xlink:href="#a"/></mask><circle cx="11.936" cy="11.932" r="11.932" fill="#4285F4" fill-rule="nonzero" mask="url(#b)"/><mask id="e" fill="#fff"><use xlink:href="#c"/></mask><path fill="url(#d)" fill-rule="nonzero" d="M23.828 12.915L16.78 5.867a2.443 2.443 0 0 0-4.224.697h-.42l-.753-1.192a.91.91 0 0 0-1.538 0l-6.311 9.99a.906.906 0 0 0 .181 1.17l7.573 7.572c.068-.25.357-.238.648-.238 6.26-.002 11.393-4.82 11.892-10.95z" mask="url(#e)"/><mask id="g" fill="#fff"><use xlink:href="#f"/></mask><path fill="#EEE" fill-rule="nonzero" d="M20.338 15.361l-1.988-3.145a.91.91 0 0 0-1.538 0l-.552.873-4.876-7.717a.91.91 0 0 0-1.537 0l-6.312 9.99a.903.903 0 0 0 .769 1.384h15.265a.903.903 0 0 0 .769-1.385z" mask="url(#g)"/><mask id="i" fill="#fff"><use xlink:href="#h"/></mask><path fill="#FFF" fill-opacity=".4" fill-rule="nonzero" d="M3.535 15.497l6.312-9.99a.91.91 0 0 1 1.537 0l4.876 7.717.552-.873a.91.91 0 0 1 1.538 0l1.988 3.146a.896.896 0 0 1 .137.414.884.884 0 0 0-.137-.55l-1.988-3.145a.91.91 0 0 0-1.538 0l-.552.873-4.876-7.717a.91.91 0 0 0-1.537 0l-6.312 9.99a.89.89 0 0 0-.137.549c.01-.14.053-.281.137-.414z" mask="url(#i)"/><mask id="k" fill="#fff"><use xlink:href="#j"/></mask><path fill="#A1C2FA" fill-rule="nonzero" d="M11.993 6.564h.563a2.444 2.444 0 0 1 4.747.815c0 1.35-1.094 2.332-2.443 2.332h-2.867c-.899 0-1.628-.594-1.628-1.494s.73-1.653 1.628-1.653z" mask="url(#k)"/><mask id="m" fill="#fff"><use xlink:href="#l"/></mask><path fill="#212121" fill-opacity=".1" fill-rule="nonzero" d="M19.569 16.61H4.304a.906.906 0 0 1-.906-.836.907.907 0 0 0 .906.972h15.265a.906.906 0 0 0 .906-.972.906.906 0 0 1-.906.836z" mask="url(#m)"/><mask id="o" fill="#fff"><use xlink:href="#n"/></mask><path fill="#FFF" fill-opacity=".2" fill-rule="nonzero" d="M11.993 6.7h.563a2.442 2.442 0 0 1 4.743.747c0-.023.004-.045.004-.068a2.444 2.444 0 0 0-4.747-.815h-.563c-.899 0-1.628.753-1.628 1.653 0 .023.002.045.004.068.035-.87.748-1.585 1.624-1.585z" mask="url(#o)"/><mask id="q" fill="#fff"><use xlink:href="#p"/></mask><path fill="#1A237E" fill-opacity=".2" fill-rule="nonzero" d="M14.86 9.71h-2.867c-.876 0-1.589-.566-1.626-1.427 0 .023-.004.045-.004.068 0 .9.73 1.494 1.629 1.494h2.866c1.35 0 2.444-.981 2.444-2.332 0-.023-.003-.045-.004-.068-.034 1.314-1.11 2.265-2.438 2.265z" mask="url(#q)"/><path fill="#1A237E" fill-rule="nonzero" d="M11.936 23.729C5.368 23.729.041 18.423.004 11.864l-.001.068c0 6.59 5.342 11.932 11.932 11.932 6.59 0 11.932-5.342 11.932-11.932l-.001-.068c-.035 6.56-5.363 11.865-11.93 11.865z" mask="url(#q)" opacity=".2"/><path fill="#FFF" fill-rule="nonzero" d="M11.936.136C18.503.136 23.831 5.44 23.867 12l.001-.068C23.868 5.342 18.526 0 11.936 0 5.346 0 .004 5.342.004 11.932L.005 12C.041 5.441 5.368.136 11.936.136z" mask="url(#q)" opacity=".2"/><circle cx="11.936" cy="11.932" r="11.932" fill="url(#r)" fill-rule="nonzero" mask="url(#q)"/><path mask="url(#q)" d="M-1.081-1.085h26.034v26.034H-1.081z"/></g></svg>
